svg/fluentui-system-icons/ic_fluent_textbox_align_center_24_filled.svg

<svg width="24" height="24" viewBox="0 0 24 24" fill="none" xmlns="http://www.w3.org/2000/svg">
<path d="M18.25 3C19.7688 3 21 4.23122 21 5.75V18.25C21 19.7688 19.7688 21 18.25 21H5.75C4.23122 21 3 19.7688 3 18.25V5.75C3 4.23122 4.23122 3 5.75 3H18.25ZM7 10L6.86431 10.0068C6.37621 10.0565 6 10.3703 6 10.75C6 11.1642 6.44772 11.5 7 11.5H17L17.1357 11.4932C17.6238 11.4435 18 11.1297 18 10.75C18 10.3358 17.5523 10 17 10H7ZM15.3333 13H8.66667L8.5762 13.0068C8.2508 13.0565 8 13.3703 8 13.75C8 14.1642 8.29848 14.5 8.66667 14.5H15.3333L15.4238 14.4932C15.7492 14.4435 16 14.1297 16 13.75C16 13.3358 15.7015 13 15.3333 13Z" fill="#212121"/>
</svg>

<svg xmlns="http://www.w3.org/2000/svg" width="24" height="24"><path d="M18.25 3A2.75 2.75 0 0 1 21 5.75v12.5A2.75 2.75 0 0 1 18.25 21H5.75A2.75 2.75 0 0 1 3 18.25V5.75A2.75 2.75 0 0 1 5.75 3h12.5ZM7 10l-.136.007c-.488.05-.864.363-.864.743 0 .414.448.75 1 .75h10l.136-.007c.488-.05.864-.363.864-.743 0-.414-.448-.75-1-.75H7Zm8.333 3H8.667l-.09.007c-.326.05-.577.363-.577.743 0 .414.298.75.667.75h6.666l.09-.007c.326-.05.577-.363.577-.743 0-.414-.299-.75-.667-.75Z"/></svg>
